_includes/icons/ios-download-from-the-cloud.svg

<svg fill="#666" height="50" viewBox="0 0 50 50" width="50" xmlns="http://www.w3.org/2000/svg"><path d="m20 8c-6.460937 0-11.632812 5.109375-11.90625 11.5-4.675781 1.277344-8.09375 5.496094-8.09375 10.5 0 6.046875 4.953125 11 11 11h30c4.945313 0 9-4.054687 9-9 0-3.898437-2.597656-7.207031-6.09375-8.375-.210937-5.863281-4.996094-10.625-10.90625-10.625-1.039062 0-2.007812.257813-2.96875.53125-2.148437-3.269531-5.8125-5.53125-10.03125-5.53125zm0 2c3.726563 0 6.992188 2.09375 8.71875 5.09375l.4375.71875.78125-.28125c1-.363281 1.972656-.53125 3.0625-.53125 4.953125 0 9 4.046875 9 9v1.09375l.78125.1875c2.933594.691406 5.21875 3.488281 5.21875 6.71875 0 3.855469-3.144531 7-7 7h-30c-4.953125 0-9-4.046875-9-9 0-4.328125 3.058594-8.003906 7.1875-8.8125l.8125-.15625v-1.03125c0-5.566406 4.433594-10 10-10zm4 10v11.5625l-4.28125-4.28125-1.4375 1.4375 6 6 .71875.6875.71875-.6875 6-6-1.4375-1.4375-4.28125 4.28125v-11.5625z"/></svg>

<svg xmlns="http://www.w3.org/2000/svg" viewBox="0 0 50 50" width="50" height="50" fill="#666"><path d="M 20 8 C 13.539063 8 8.367188 13.109375 8.09375 19.5 C 3.417969 20.777344 0 24.996094 0 30 C 0 36.046875 4.953125 41 11 41 L 41 41 C 45.945313 41 50 36.945313 50 32 C 50 28.101563 47.402344 24.792969 43.90625 23.625 C 43.695313 17.761719 38.910156 13 33 13 C 31.960938 13 30.992188 13.257813 30.03125 13.53125 C 27.882813 10.261719 24.21875 8 20 8 Z M 20 10 C 23.726563 10 26.992188 12.09375 28.71875 15.09375 L 29.15625 15.8125 L 29.9375 15.53125 C 30.9375 15.167969 31.910156 15 33 15 C 37.953125 15 42 19.046875 42 24 L 42 25.09375 L 42.78125 25.28125 C 45.714844 25.972656 48 28.769531 48 32 C 48 35.855469 44.855469 39 41 39 L 11 39 C 6.046875 39 2 34.953125 2 30 C 2 25.671875 5.058594 21.996094 9.1875 21.1875 L 10 21.03125 L 10 20 C 10 14.433594 14.433594 10 20 10 Z M 24 20 L 24 31.5625 L 19.71875 27.28125 L 18.28125 28.71875 L 24.28125 34.71875 L 25 35.40625 L 25.71875 34.71875 L 31.71875 28.71875 L 30.28125 27.28125 L 26 31.5625 L 26 20 Z"/></svg>
